dist/img/logo768.svg

<svg width="163" height="27" viewBox="0 0 163 27" fill="none" xmlns="http://www.w3.org/2000/svg">
<path d="M12.292 14.8457C12.292 15.946 12.0254 16.9023 11.4922 17.7148C10.959 18.5273 10.1803 19.1536 9.15625 19.5938C8.14062 20.0339 6.90495 20.2539 5.44922 20.2539C4.80599 20.2539 4.17546 20.2116 3.55762 20.127C2.94824 20.0423 2.36003 19.9196 1.79297 19.7588C1.23438 19.5895 0.701172 19.3822 0.193359 19.1367V15.4805C1.07357 15.8698 1.98763 16.221 2.93555 16.5342C3.88346 16.8473 4.82292 17.0039 5.75391 17.0039C6.39714 17.0039 6.91341 16.9193 7.30273 16.75C7.70052 16.5807 7.98828 16.348 8.16602 16.0518C8.34375 15.7555 8.43262 15.417 8.43262 15.0361C8.43262 14.5706 8.27604 14.1729 7.96289 13.8428C7.64974 13.5127 7.2181 13.2038 6.66797 12.916C6.1263 12.6283 5.5127 12.3193 4.82715 11.9893C4.39551 11.7861 3.92578 11.5407 3.41797 11.2529C2.91016 10.9567 2.42773 10.597 1.9707 10.1738C1.51367 9.75065 1.13704 9.23861 0.84082 8.6377C0.55306 8.02832 0.40918 7.30046 0.40918 6.4541C0.40918 5.34538 0.663086 4.39746 1.1709 3.61035C1.67871 2.82324 2.40234 2.22233 3.3418 1.80762C4.28971 1.38444 5.4069 1.17285 6.69336 1.17285C7.6582 1.17285 8.5765 1.28711 9.44824 1.51562C10.3285 1.73568 11.2467 2.05729 12.2031 2.48047L10.9336 5.54004C10.0788 5.19303 9.31283 4.92643 8.63574 4.74023C7.95866 4.54557 7.26888 4.44824 6.56641 4.44824C6.07552 4.44824 5.65658 4.52865 5.30957 4.68945C4.96257 4.8418 4.7002 5.06185 4.52246 5.34961C4.34473 5.62891 4.25586 5.95475 4.25586 6.32715C4.25586 6.76725 4.38281 7.13965 4.63672 7.44434C4.89909 7.74056 5.28841 8.02832 5.80469 8.30762C6.32943 8.58691 6.98112 8.91276 7.75977 9.28516C8.70768 9.73372 9.51595 10.2035 10.1846 10.6943C10.8617 11.1768 11.3822 11.748 11.7461 12.4082C12.11 13.0599 12.292 13.8724 12.292 14.8457ZM20.7836 0.246094V4.27051C20.7836 4.97298 20.7582 5.6416 20.7075 6.27637C20.6651 6.91113 20.6313 7.3597 20.6059 7.62207H20.809C21.1137 7.13118 21.4734 6.7334 21.8881 6.42871C22.3113 6.12402 22.7768 5.89974 23.2846 5.75586C23.7924 5.61198 24.3383 5.54004 24.9223 5.54004C25.9464 5.54004 26.8393 5.72201 27.601 6.08594C28.3627 6.44141 28.9552 7.00423 29.3784 7.77441C29.8015 8.53613 30.0131 9.52637 30.0131 10.7451V20H26.1411V11.71C26.1411 10.6943 25.9549 9.92839 25.5825 9.41211C25.2101 8.89583 24.6345 8.6377 23.8559 8.6377C23.0773 8.6377 22.4636 8.81966 22.0151 9.18359C21.5665 9.53906 21.2491 10.068 21.0629 10.7705C20.8767 11.4645 20.7836 12.3151 20.7836 13.3223V20H16.9116V0.246094H20.7836ZM48.4579 12.8779C48.4579 14.0628 48.2971 15.1123 47.9755 16.0264C47.6623 16.9404 47.2011 17.7148 46.5917 18.3496C45.9908 18.9759 45.2629 19.4499 44.4081 19.7715C43.5617 20.0931 42.6054 20.2539 41.5389 20.2539C40.5402 20.2539 39.622 20.0931 38.7841 19.7715C37.9546 19.4499 37.231 18.9759 36.6132 18.3496C36.0038 17.7148 35.5298 16.9404 35.1913 16.0264C34.8612 15.1123 34.6962 14.0628 34.6962 12.8779C34.6962 11.3037 34.9755 9.9707 35.5341 8.87891C36.0927 7.78711 36.8882 6.95768 37.9208 6.39062C38.9533 5.82357 40.1848 5.54004 41.6151 5.54004C42.9439 5.54004 44.1203 5.82357 45.1444 6.39062C46.177 6.95768 46.9852 7.78711 47.5692 8.87891C48.1617 9.9707 48.4579 11.3037 48.4579 12.8779ZM38.6444 12.8779C38.6444 13.8089 38.746 14.5918 38.9491 15.2266C39.1522 15.8613 39.4696 16.3395 39.9012 16.6611C40.3329 16.9827 40.8957 17.1436 41.5897 17.1436C42.2753 17.1436 42.8296 16.9827 43.2528 16.6611C43.6845 16.3395 43.9976 15.8613 44.1923 15.2266C44.3954 14.5918 44.497 13.8089 44.497 12.8779C44.497 11.9385 44.3954 11.1598 44.1923 10.542C43.9976 9.91569 43.6845 9.44596 43.2528 9.13281C42.8212 8.81966 42.2583 8.66309 41.5643 8.66309C40.5402 8.66309 39.7955 9.01432 39.33 9.7168C38.8729 10.4193 38.6444 11.473 38.6444 12.8779ZM61.1136 5.54004C62.7132 5.54004 64.0039 6.16211 64.9857 7.40625C65.9759 8.65039 66.471 10.4743 66.471 12.8779C66.471 14.486 66.2383 15.8402 65.7728 16.9404C65.3073 18.0322 64.664 18.8574 63.8431 19.416C63.0221 19.9746 62.0784 20.2539 61.012 20.2539C60.3265 20.2539 59.7383 20.1693 59.2474 20C58.7565 19.8223 58.3376 19.598 57.9905 19.3271C57.6435 19.0479 57.3431 18.7516 57.0892 18.4385H56.8861C56.9538 18.777 57.0045 19.124 57.0384 19.4795C57.0723 19.835 57.0892 20.182 57.0892 20.5205V26.2461H53.2171V5.80664H56.3655L56.9114 7.64746H57.0892C57.3431 7.2666 57.652 6.91536 58.0159 6.59375C58.3799 6.27214 58.8157 6.01823 59.3236 5.83203C59.8398 5.63737 60.4365 5.54004 61.1136 5.54004ZM59.8695 8.6377C59.1924 8.6377 58.6549 8.77734 58.2571 9.05664C57.8594 9.33594 57.5674 9.75488 57.3812 10.3135C57.2034 10.8721 57.1061 11.5788 57.0892 12.4336V12.8525C57.0892 13.7666 57.1738 14.541 57.3431 15.1758C57.5208 15.8105 57.8128 16.293 58.2191 16.623C58.6338 16.9531 59.2008 17.1182 59.9202 17.1182C60.5127 17.1182 60.9993 16.9531 61.3802 16.623C61.7611 16.293 62.0446 15.8105 62.2308 15.1758C62.4254 14.5326 62.5228 13.7497 62.5228 12.8271C62.5228 11.4391 62.307 10.3939 61.8753 9.69141C61.4437 8.98893 60.7751 8.6377 59.8695 8.6377Z" fill="#2D2D2D"/>
<path d="M88.3816 10.6943C88.3816 12.1247 88.2039 13.4281 87.8484 14.6045C87.4929 15.7725 86.9513 16.7796 86.2234 17.626C85.504 18.4723 84.5899 19.124 83.4812 19.5811C82.3725 20.0296 81.0606 20.2539 79.5457 20.2539C78.0307 20.2539 76.7188 20.0296 75.6101 19.5811C74.5014 19.124 73.5831 18.4723 72.8552 17.626C72.1358 16.7796 71.5984 15.7682 71.2429 14.5918C70.8875 13.4154 70.7097 12.1077 70.7097 10.6689C70.7097 8.74772 71.0229 7.07617 71.6492 5.6543C72.2839 4.22396 73.2573 3.11523 74.5691 2.32812C75.8809 1.54102 77.5483 1.14746 79.5711 1.14746C81.5854 1.14746 83.24 1.54102 84.5349 2.32812C85.8383 3.11523 86.8031 4.22396 87.4295 5.6543C88.0642 7.08464 88.3816 8.76465 88.3816 10.6943ZM74.8357 10.6943C74.8357 11.9893 74.9965 13.1064 75.3181 14.0459C75.6482 14.9769 76.1602 15.6963 76.8543 16.2041C77.5483 16.7035 78.4454 16.9531 79.5457 16.9531C80.6628 16.9531 81.5684 16.7035 82.2625 16.2041C82.9565 15.6963 83.46 14.9769 83.7732 14.0459C84.0948 13.1064 84.2556 11.9893 84.2556 10.6943C84.2556 8.74772 83.8917 7.21582 83.1638 6.09863C82.436 4.98145 81.2384 4.42285 79.5711 4.42285C78.4623 4.42285 77.5567 4.67676 76.8543 5.18457C76.1602 5.68392 75.6482 6.40332 75.3181 7.34277C74.9965 8.27376 74.8357 9.39095 74.8357 10.6943ZM101.545 5.54004C103.06 5.54004 104.279 5.95475 105.201 6.78418C106.124 7.60514 106.585 8.92546 106.585 10.7451V20H102.713V11.71C102.713 10.6943 102.527 9.92839 102.154 9.41211C101.791 8.89583 101.215 8.6377 100.428 8.6377C99.243 8.6377 98.4348 9.03971 98.0031 9.84375C97.5715 10.6478 97.3557 11.8073 97.3557 13.3223V20H93.4836V5.80664H96.4416L96.9621 7.62207H97.1779C97.4826 7.13118 97.8592 6.7334 98.3078 6.42871C98.7648 6.12402 99.2684 5.89974 99.8186 5.75586C100.377 5.61198 100.953 5.54004 101.545 5.54004ZM116.004 20H112.131V0.246094H116.004V20ZM125.511 5.80664V20H121.639V5.80664H125.511ZM123.581 0.246094C124.157 0.246094 124.652 0.38151 125.066 0.652344C125.481 0.914714 125.689 1.40983 125.689 2.1377C125.689 2.8571 125.481 3.35645 125.066 3.63574C124.652 3.90658 124.157 4.04199 123.581 4.04199C122.997 4.04199 122.498 3.90658 122.083 3.63574C121.677 3.35645 121.474 2.8571 121.474 2.1377C121.474 1.40983 121.677 0.914714 122.083 0.652344C122.498 0.38151 122.997 0.246094 123.581 0.246094ZM139.208 5.54004C140.723 5.54004 141.941 5.95475 142.864 6.78418C143.786 7.60514 144.248 8.92546 144.248 10.7451V20H140.376V11.71C140.376 10.6943 140.189 9.92839 139.817 9.41211C139.453 8.89583 138.877 8.6377 138.09 8.6377C136.905 8.6377 136.097 9.03971 135.666 9.84375C135.234 10.6478 135.018 11.8073 135.018 13.3223V20H131.146V5.80664H134.104L134.625 7.62207H134.84C135.145 7.13118 135.522 6.7334 135.97 6.42871C136.427 6.12402 136.931 5.89974 137.481 5.75586C138.04 5.61198 138.615 5.54004 139.208 5.54004ZM155.646 5.54004C156.958 5.54004 158.088 5.79395 159.036 6.30176C159.984 6.80111 160.716 7.52897 161.232 8.48535C161.749 9.44173 162.007 10.6097 162.007 11.9893V13.8682H152.853C152.896 14.96 153.222 15.819 153.831 16.4453C154.449 17.0632 155.304 17.3721 156.395 17.3721C157.301 17.3721 158.13 17.279 158.884 17.0928C159.637 16.9066 160.411 16.6273 161.207 16.2549V19.251C160.505 19.598 159.768 19.8519 158.998 20.0127C158.236 20.1735 157.31 20.2539 156.218 20.2539C154.796 20.2539 153.535 19.9915 152.435 19.4668C151.343 18.9421 150.484 18.1423 149.857 17.0674C149.24 15.9925 148.931 14.6383 148.931 13.0049C148.931 11.346 149.21 9.96647 149.769 8.86621C150.336 7.75749 151.123 6.92806 152.13 6.37793C153.137 5.81934 154.309 5.54004 155.646 5.54004ZM155.672 8.29492C154.919 8.29492 154.292 8.53613 153.793 9.01855C153.302 9.50098 153.019 10.2585 152.942 11.291H158.376C158.367 10.7155 158.262 10.2035 158.059 9.75488C157.864 9.30632 157.568 8.95085 157.17 8.68848C156.781 8.42611 156.281 8.29492 155.672 8.29492Z" fill="#3670C7"/>
</svg>

<svg width="163" height="27" fill="none" xmlns="http://www.w3.org/2000/svg"><path d="M12.292 14.846c0 1.1-.267 2.056-.8 2.869-.533.812-1.312 1.439-2.336 1.879-1.015.44-2.251.66-3.707.66-.643 0-1.274-.042-1.891-.127a13.043 13.043 0 0 1-1.765-.368 10.997 10.997 0 0 1-1.6-.622V15.48c.88.39 1.795.741 2.743 1.054.947.313 1.887.47 2.818.47.643 0 1.16-.085 1.549-.254.398-.17.685-.402.863-.698.178-.296.267-.635.267-1.016 0-.465-.157-.863-.47-1.193-.313-.33-.745-.64-1.295-.927a52.459 52.459 0 0 0-1.84-.927 21.18 21.18 0 0 1-1.41-.736 8.243 8.243 0 0 1-1.447-1.08A5.203 5.203 0 0 1 .84 8.639C.553 8.028.409 7.3.409 6.454c0-1.109.254-2.057.762-2.844.508-.787 1.231-1.388 2.17-1.802.949-.424 2.066-.635 3.352-.635.965 0 1.883.114 2.755.343.88.22 1.799.541 2.755.964l-1.27 3.06a21.035 21.035 0 0 0-2.297-.8 7.453 7.453 0 0 0-2.07-.292c-.49 0-.91.08-1.256.241-.347.153-.61.373-.788.66-.177.28-.266.606-.266.978 0 .44.127.813.38 1.117.263.297.652.584 1.169.864.524.279 1.176.605 1.955.977.948.449 1.756.918 2.425 1.41.677.482 1.197 1.053 1.561 1.713.364.652.546 1.464.546 2.438Zm8.492-14.6v4.025c0 .702-.026 1.37-.076 2.005a52.425 52.425 0 0 1-.102 1.346h.203c.305-.49.664-.889 1.08-1.193a4.445 4.445 0 0 1 1.396-.673 5.985 5.985 0 0 1 1.637-.216c1.024 0 1.917.182 2.679.546.762.355 1.354.918 1.777 1.688.424.762.635 1.752.635 2.971V20h-3.872v-8.29c0-1.016-.186-1.782-.558-2.298-.373-.516-.948-.774-1.727-.774-.779 0-1.392.182-1.84.546-.45.355-.767.884-.953 1.587-.186.693-.28 1.544-.28 2.551V20h-3.871V.246h3.872Zm27.674 12.632c0 1.185-.16 2.234-.483 3.148-.313.914-.774 1.689-1.383 2.324-.601.626-1.33 1.1-2.184 1.421-.846.322-1.803.483-2.87.483-.998 0-1.916-.16-2.754-.483a6.122 6.122 0 0 1-2.17-1.421c-.61-.635-1.084-1.41-1.423-2.324-.33-.914-.495-1.963-.495-3.148 0-1.574.28-2.907.838-4 .559-1.09 1.354-1.92 2.387-2.487 1.032-.567 2.264-.851 3.694-.851 1.329 0 2.505.284 3.53.85 1.032.568 1.84 1.397 2.424 2.489.593 1.092.889 2.425.889 3.999Zm-9.814 0c0 .93.102 1.714.305 2.349.203.634.52 1.113.952 1.434.432.322.995.483 1.689.483.685 0 1.24-.161 1.663-.483.431-.322.745-.8.94-1.434.202-.635.304-1.418.304-2.35 0-.939-.102-1.717-.305-2.335-.194-.626-.508-1.096-.94-1.41-.43-.312-.994-.469-1.688-.469-1.024 0-1.769.351-2.234 1.054-.457.702-.686 1.756-.686 3.16Zm22.47-7.338c1.6 0 2.89.622 3.872 1.866.99 1.244 1.485 3.068 1.485 5.472 0 1.608-.233 2.962-.698 4.062-.466 1.092-1.109 1.917-1.93 2.476-.82.559-1.765.838-2.831.838-.685 0-1.274-.085-1.765-.254a4.535 4.535 0 0 1-1.257-.673 5.98 5.98 0 0 1-.9-.889h-.204a10.966 10.966 0 0 1 .203 2.082v5.726h-3.872V5.806h3.148l.546 1.841h.178c.254-.38.563-.732.927-1.053.364-.322.8-.576 1.308-.762.516-.195 1.113-.292 1.79-.292ZM59.87 8.638c-.678 0-1.215.14-1.613.419-.398.279-.69.698-.876 1.256-.178.56-.275 1.266-.292 2.12v.42c0 .914.085 1.688.254 2.323.178.634.47 1.117.876 1.447.415.33.982.495 1.701.495.593 0 1.08-.165 1.46-.495.381-.33.665-.813.85-1.447.195-.643.293-1.426.293-2.349 0-1.388-.216-2.433-.648-3.136-.431-.702-1.1-1.053-2.005-1.053Z" fill="#2D2D2D"/><path d="M88.382 10.694c0 1.43-.178 2.734-.534 3.91-.355 1.169-.897 2.176-1.625 3.022-.719.846-1.633 1.498-2.742 1.955-1.108.449-2.42.673-3.935.673-1.515 0-2.827-.224-3.936-.673-1.109-.457-2.027-1.109-2.755-1.955-.72-.846-1.257-1.858-1.612-3.034-.355-1.177-.533-2.484-.533-3.923 0-1.921.313-3.593.94-5.015.634-1.43 1.607-2.539 2.92-3.326 1.31-.787 2.978-1.18 5.001-1.18 2.014 0 3.669.393 4.964 1.18 1.303.787 2.268 1.896 2.895 3.326.634 1.43.952 3.11.952 5.04Zm-13.546 0c0 1.295.16 2.412.482 3.352.33.93.842 1.65 1.536 2.158.694.5 1.591.75 2.692.75 1.117 0 2.022-.25 2.716-.75.695-.508 1.198-1.227 1.511-2.158.322-.94.483-2.057.483-3.352 0-1.946-.364-3.478-1.092-4.595-.728-1.118-1.926-1.676-3.593-1.676-1.109 0-2.014.254-2.717.762-.694.499-1.206 1.218-1.536 2.158-.322.93-.482 2.048-.482 3.351Zm26.709-5.154c1.515 0 2.734.415 3.656 1.244.923.821 1.384 2.141 1.384 3.961V20h-3.872v-8.29c0-1.016-.186-1.782-.559-2.298-.363-.516-.939-.774-1.726-.774-1.185 0-1.993.402-2.425 1.206-.431.804-.647 1.963-.647 3.478V20h-3.872V5.807h2.958l.52 1.815h.216c.305-.49.681-.889 1.13-1.193.457-.305.96-.53 1.51-.673a6.894 6.894 0 0 1 1.727-.216ZM116.004 20h-3.873V.246h3.873V20Zm9.507-14.193V20h-3.872V5.807h3.872Zm-1.93-5.56c.576 0 1.071.135 1.485.405.415.263.623.758.623 1.486 0 .72-.208 1.218-.623 1.498-.414.27-.909.406-1.485.406-.584 0-1.083-.135-1.498-.406-.406-.28-.609-.779-.609-1.498 0-.728.203-1.223.609-1.486.415-.27.914-.406 1.498-.406Zm15.627 5.293c1.515 0 2.733.415 3.656 1.244.922.821 1.384 2.141 1.384 3.961V20h-3.872v-8.29c0-1.016-.187-1.782-.559-2.298-.364-.516-.94-.774-1.727-.774-1.185 0-1.993.402-2.424 1.206-.432.804-.648 1.963-.648 3.478V20h-3.872V5.807h2.958l.521 1.815h.215c.305-.49.682-.889 1.13-1.193a4.97 4.97 0 0 1 1.511-.673 6.897 6.897 0 0 1 1.727-.216Zm16.438 0c1.312 0 2.442.254 3.39.762.948.5 1.68 1.227 2.196 2.183.517.957.775 2.125.775 3.504v1.88h-9.154c.043 1.091.369 1.95.978 2.576.618.618 1.473.927 2.564.927.906 0 1.735-.093 2.489-.28a12.678 12.678 0 0 0 2.323-.837v2.996a9.22 9.22 0 0 1-2.209.762c-.762.16-1.688.24-2.78.24-1.422 0-2.683-.262-3.783-.786-1.092-.525-1.951-1.325-2.578-2.4-.617-1.075-.926-2.429-.926-4.062 0-1.659.279-3.039.838-4.139.567-1.109 1.354-1.938 2.361-2.488 1.007-.559 2.179-.838 3.516-.838Zm.026 2.755c-.753 0-1.38.241-1.879.724-.491.482-.774 1.24-.851 2.272h5.434c-.009-.575-.114-1.088-.317-1.536a2.387 2.387 0 0 0-.889-1.067c-.389-.262-.889-.393-1.498-.393Z" fill="#3670C7"/></svg>
